prod/svg/plate.svg

<?xml version="1.0"?>
<!DOCTYPE svg PUBLIC "-//W3C//DTD SVG 1.1//EN" "http://www.w3.org/Graphics/SVG/1.1/DTD/svg11.dtd">
<svg width="110.72251097804828mm" height="98.4266956205132mm" viewBox="0 0 110.72251097804828 98.4266956205132" xmlns="http://www.w3.org/2000/svg" version="1.1">
<g id="Sketch013" transform="translate(120.150048,53.477734) scale(1,-1)">
<path id="Sketch013_w0000"  d="M -110.51925915489073 51.51930861942114 L -119.06230012759153 -18.05817661063547 A 1 1 0 0 1 -118.192 -19.1726L -110.25125410622476 -20.147546852923128 A 1 1 0 0 1 -109.137 -19.2769L -108.77123058096288 -16.299231589763018 A 1 1 0 0 0 -107.657 -15.4286L -87.09249950659779 -17.953535240202246 A 1 1 0 0 0 -86.2218 -19.068L -87.71959692881087 -31.266342938920506 A 1 1 0 0 1 -86.8489 -32.3808L -43.69177276452048 -37.679789821902055 A 1 1 0 0 0 -42.8211 -38.7942L -43.186703986499744 -41.77184377187246 A 1 1 0 0 1 -42.316 -42.8863L -34.375657965132994 -43.861214014160105 A 1 1 0 0 1 -33.2612 -42.9905L -32.89563443987109 -40.012898751 A 1 1 0 0 0 -31.7812 -39.1422L -21.85575742841138 -40.360915376815306 A 1 1 0 0 1 -20.7413 -39.4902L -10.515285328239024 43.79430901564422 A 1 1 0 0 1 -11.386 44.9087L -19.326331349605773 45.883679257931874 A 1 1 0 0 1 -20.4407 45.013L -20.77710623245045 42.27357507116563 A 1 1 0 0 0 -21.8915 41.4029L -47.79697628533538 44.58368812580381 A 1 1 0 0 0 -48.6677 45.6981L -48.331293705773355 48.43753099938033 A 1 1 0 0 1 -49.202 49.5519L -71.03798585011872 52.23307204934005 A 1 1 0 0 1 -72.1524 51.3624L -72.48876073296339 48.62296786257381 A 1 1 0 0 0 -73.6032 47.7523L -90.52608811349442 49.8301633593954 A 1 1 0 0 1 -91.6405 48.9595L -91.97686299633911 46.220059172629156 A 1 1 0 0 0 -93.0913 45.3494L -100.08872886045678 46.208561235399266 A 1 1 0 0 0 -100.959 47.323L -100.59379763847751 50.30061518536967 A 1 1 0 0 1 -101.464 51.415L -109.40484365984426 52.389985427657315 A 1 1 0 0 1 -110.519 51.5193" stroke="#191919" stroke-width="0.35 px" style="stroke-width:0.35;stroke-miterlimit:4;stroke-dasharray:none;stroke-linecap:square;fill:none;fill-opacity:1;fill-rule: evenodd"/>
<path id="Sketch013_w0001"  d="M -30.44123765765324 37.41512225196405 L -32.1474084653253 23.519476128985534 L -18.251762342346783 21.813305321313464 L -16.545591534674724 35.708951444291976 L -30.44123765765324 37.41512225196405 " stroke="#191919" stroke-width="0.35 px" style="stroke-width:0.35;stroke-miterlimit:4;stroke-dasharray:none;stroke-linecap:square;fill:none;fill-opacity:1;fill-rule: evenodd"/>
<path id="Sketch013_w0002"  d="M -32.76284864952129 18.50711806319686 L -34.46901945719335 4.6114719402183475 L -20.57337333421483 2.905301132546277 L -18.867202526542773 16.80094725552479 L -32.76284864952129 18.50711806319686 " stroke="#191919" stroke-width="0.35 px" style="stroke-width:0.35;stroke-miterlimit:4;stroke-dasharray:none;stroke-linecap:square;fill:none;fill-opacity:1;fill-rule: evenodd"/>
<path id="Sketch013_w0003"  d="M -40.09681770717799 0.21455405862564447 L -53.9924638301565 1.920724866297714 L -55.69863463782856 -11.974921256680798 L -41.80298851485005 -13.681092064352868 L -40.09681770717799 0.21455405862564447 " stroke="#191919" stroke-width="0.35 px" style="stroke-width:0.35;stroke-miterlimit:4;stroke-dasharray:none;stroke-linecap:square;fill:none;fill-opacity:1;fill-rule: evenodd"/>
<path id="Sketch013_w0004"  d="M -87.16525022395481 44.37995522756818 L -88.87142103162687 30.48430910458967 L -74.97577490864836 28.7781382969176 L -73.2696041009763 42.67378441989611 L -87.16525022395481 44.37995522756818 " stroke="#191919" stroke-width="0.35 px" style="stroke-width:0.35;stroke-miterlimit:4;stroke-dasharray:none;stroke-linecap:square;fill:none;fill-opacity:1;fill-rule: evenodd"/>
<path id="Sketch013_w0005"  d="M -35.08445964138934 -0.40088612557032866 L -36.790630449061396 -14.296532248548841 L -22.894984326082884 -16.00270305622091 L -21.188813518410825 -2.107056933242397 L -35.08445964138934 -0.40088612557032866 " stroke="#191919" stroke-width="0.35 px" style="stroke-width:0.35;stroke-miterlimit:4;stroke-dasharray:none;stroke-linecap:square;fill:none;fill-opacity:1;fill-rule: evenodd"/>
<path id="Sketch013_w0006"  d="M -89.48686121582287 25.471951038800995 L -91.19303202349494 11.576304915822485 L -77.29738590051642 9.870134108150415 L -75.59121509284437 23.765780231128925 L -89.48686121582287 25.471951038800995 " stroke="#191919" stroke-width="0.35 px" style="stroke-width:0.35;stroke-miterlimit:4;stroke-dasharray:none;stroke-linecap:square;fill:none;fill-opacity:1;fill-rule: evenodd"/>
<path id="Sketch013_w0007"  d="M -63.68993341140913 -16.081637764289994 L -65.3961042190812 -29.977283887268502 L -79.2917503420597 -28.271113079596436 L -77.58557953438763 -14.375466956617924 L -63.68993341140913 -16.081637764289994 " stroke="#191919" stroke-width="0.35 px" style="stroke-width:0.35;stroke-miterlimit:4;stroke-dasharray:none;stroke-linecap:square;fill:none;fill-opacity:1;fill-rule: evenodd"/>
<path id="Sketch013_w0008"  d="M -34.67059741233451 -33.749901749054075 L -32.96442660466245 -19.854255626075567 L -46.86007272764096 -18.148084818403497 L -48.56624353531302 -32.04373094138201 L -34.67059741233451 -33.749901749054075 " stroke="#191919" stroke-width="0.35 px" style="stroke-width:0.35;stroke-miterlimit:4;stroke-dasharray:none;stroke-linecap:square;fill:none;fill-opacity:1;fill-rule: evenodd"/>
<path id="Sketch013_w0009"  d="M -108.97496347919851 23.069042348856346 L -95.07931735621999 21.36287154118428 L -96.78548816389205 7.46722541820577 L -110.68113428687056 9.173396225877838 L -108.97496347919851 23.069042348856346 " stroke="#191919" stroke-width="0.35 px" style="stroke-width:0.35;stroke-miterlimit:4;stroke-dasharray:none;stroke-linecap:square;fill:none;fill-opacity:1;fill-rule: evenodd"/>
<path id="Sketch013_w0010"  d="M -111.29657447106653 4.161038160089159 L -113.0027452787386 -9.73460796288935 L -99.10709915576008 -11.440778770561415 L -97.40092834808803 2.4548673524170894 L -111.29657447106653 4.161038160089159 " stroke="#191919" stroke-width="0.35 px" style="stroke-width:0.35;stroke-miterlimit:4;stroke-dasharray:none;stroke-linecap:square;fill:none;fill-opacity:1;fill-rule: evenodd"/>
<path id="Sketch013_w0011"  d="M -51.67085283828845 20.8287290550649 L -37.77520671530994 19.12255824739283 L -39.481377522982 5.226912124414319 L -53.377023645960506 6.93308293208639 L -51.67085283828845 20.8287290550649 " stroke="#191919" stroke-width="0.35 px" style="stroke-width:0.35;stroke-miterlimit:4;stroke-dasharray:none;stroke-linecap:square;fill:none;fill-opacity:1;fill-rule: evenodd"/>
<path id="Sketch013_w0012"  d="M -74.02654075198721 -4.92879058300004 L -72.32036994431516 8.966855539978472 L -58.42472382133665 7.2606847323064025 L -60.13089462900871 -6.634961390672109 L -74.02654075198721 -4.92879058300004 " stroke="#191919" stroke-width="0.35 px" style="stroke-width:0.35;stroke-miterlimit:4;stroke-dasharray:none;stroke-linecap:square;fill:none;fill-opacity:1;fill-rule: evenodd"/>
<path id="Sketch013_w0013"  d="M -69.99875895244712 27.874859728745662 L -71.70492976011917 13.979213605767152 L -57.809283637140666 12.273042798095082 L -56.10311282946861 26.168688921073592 L -69.99875895244712 27.874859728745662 " stroke="#191919" stroke-width="0.35 px" style="stroke-width:0.35;stroke-miterlimit:4;stroke-dasharray:none;stroke-linecap:square;fill:none;fill-opacity:1;fill-rule: evenodd"/>
<path id="Sketch013_w0014"  d="M -67.67714796057908 46.78286391751285 L -53.781501837600565 45.07669310984078 L -55.487672645272625 31.18104698686227 L -69.38331876825113 32.88721779453434 L -67.67714796057908 46.78286391751285 " stroke="#191919" stroke-width="0.35 px" style="stroke-width:0.35;stroke-miterlimit:4;stroke-dasharray:none;stroke-linecap:square;fill:none;fill-opacity:1;fill-rule: evenodd"/>
<path id="Sketch013_w0015"  d="M -49.3492418464204 39.736733243832084 L -35.45359572344189 38.03056243616002 L -37.15976653111395 24.134916313181506 L -51.05541265409246 25.841087120853576 L -49.3492418464204 39.736733243832084 " stroke="#191919" stroke-width="0.35 px" style="stroke-width:0.35;stroke-miterlimit:4;stroke-dasharray:none;stroke-linecap:square;fill:none;fill-opacity:1;fill-rule: evenodd"/>
<path id="Sketch013_w0016"  d="M -106.65335248733044 41.97704653762353 L -108.35952329500249 28.08140041464502 L -94.46387717202398 26.37522960697295 L -92.75770636435193 40.27087572995146 L -106.65335248733044 41.97704653762353 " stroke="#191919" stroke-width="0.35 px" style="stroke-width:0.35;stroke-miterlimit:4;stroke-dasharray:none;stroke-linecap:square;fill:none;fill-opacity:1;fill-rule: evenodd"/>
<path id="Sketch013_w0017"  d="M -91.80847220769091 6.563946850033806 L -93.51464301536296 -7.331699272944705 L -79.61899689238446 -9.03787008061677 L -77.9128260847124 4.857776042361737 L -91.80847220769091 6.563946850033806 " stroke="#191919" stroke-width="0.35 px" style="stroke-width:0.35;stroke-miterlimit:4;stroke-dasharray:none;stroke-linecap:square;fill:none;fill-opacity:1;fill-rule: evenodd"/>
<title>b'Sketch013'</title>
</g>
</svg>

<?xml version="1.0" encoding="UTF-8" standalone="no"?>
<!-- Created with Inkscape (http://www.inkscape.org/) -->

<svg
   width="110.55003mm"
   height="101.26004mm"
   viewBox="0 0 110.55003 101.26004"
   version="1.1"
   id="svg2462"
   inkscape:version="1.1.2 (0a00cf5339, 2022-02-04, custom)"
   sodipodi:docname="plate.svg"
   xmlns:inkscape="http://www.inkscape.org/namespaces/inkscape"
   xmlns:sodipodi="http://sodipodi.sourceforge.net/DTD/sodipodi-0.dtd"
   xmlns="http://www.w3.org/2000/svg"
   xmlns:svg="http://www.w3.org/2000/svg">
  <sodipodi:namedview
     id="namedview2464"
     pagecolor="#ffffff"
     bordercolor="#666666"
     borderopacity="1.0"
     inkscape:pageshadow="2"
     inkscape:pageopacity="0.0"
     inkscape:pagecheckerboard="0"
     inkscape:document-units="mm"
     showgrid="false"
     inkscape:zoom="0.80000879"
     inkscape:cx="183.74798"
     inkscape:cy="61.87432"
     inkscape:window-width="1920"
     inkscape:window-height="1135"
     inkscape:window-x="0"
     inkscape:window-y="0"
     inkscape:window-maximized="1"
     inkscape:current-layer="layer1"
     lock-margins="true"
     fit-margin-top="5"
     fit-margin-left="5"
     fit-margin-right="5"
     fit-margin-bottom="5" />
  <defs
     id="defs2459" />
  <g
     inkscape:label="Layer 1"
     inkscape:groupmode="layer"
     id="layer1"
     transform="translate(-46.85195,-96.600698)">
    <g
       id="Sketch013"
       transform="matrix(0.99254615,-0.12186934,-0.12186934,-0.99254615,168.00104,144.96208)">
      <path
         id="Sketch013_w0000"
         d="m -110.51926,51.519309 -8.54304,-69.577486 a 1,1 0 0 1 0.8703,-1.114423 l 7.94075,-0.974947 a 1,1 0 0 1 1.11425,0.870647 l 0.36577,2.977668 a 1,1 0 0 0 1.11423,0.870632 l 20.5645,-2.524935 a 1,1 0 0 0 0.8707,-1.114465 l -1.497797,-12.198343 A 1,1 0 0 1 -86.8489,-32.3808 l 43.157127,-5.29899 a 1,1 0 0 0 0.870673,-1.11441 l -0.365604,-2.977644 A 1,1 0 0 1 -42.316,-42.8863 l 7.940342,-0.974914 a 1,1 0 0 1 1.114458,0.870714 l 0.365566,2.977601 a 1,1 0 0 0 1.114434,0.870699 l 9.925443,-1.218715 a 1,1 0 0 1 1.114457,0.870715 l 10.226015,83.284509 A 1,1 0 0 1 -11.386,44.9087 l -7.940331,0.974979 A 1,1 0 0 1 -20.4407,45.013 l -0.336406,-2.739425 A 1,1 0 0 0 -21.8915,41.4029 l -25.905476,3.180788 A 1,1 0 0 0 -48.6677,45.6981 l 0.336406,2.739431 A 1,1 0 0 1 -49.202,49.5519 l -21.835986,2.681172 A 1,1 0 0 1 -72.1524,51.3624 l -0.336361,-2.739432 A 1,1 0 0 0 -73.6032,47.7523 l -16.922888,2.077863 A 1,1 0 0 1 -91.6405,48.9595 l -0.336363,-2.739441 A 1,1 0 0 0 -93.0913,45.3494 l -6.99743,0.859161 A 1,1 0 0 0 -100.959,47.323 l 0.3652,2.977615 A 1,1 0 0 1 -101.464,51.415 l -7.94084,0.974985 A 1,1 0 0 1 -110.519,51.5193"
         stroke="#191919"
         stroke-width="0.35 px"
         style="fill:none;fill-opacity:1;fill-rule:evenodd;stroke-width:0.35;stroke-linecap:square;stroke-miterlimit:4;stroke-dasharray:none" />
      <path
         id="Sketch013_w0001"
         d="m -87.16525,44.379955 -1.706171,-13.895646 13.895646,-1.706171 1.706171,13.895646 -13.895646,1.706171"
         stroke="#191919"
         stroke-width="0.35 px"
         style="fill:none;fill-opacity:1;fill-rule:evenodd;stroke-width:0.35;stroke-linecap:square;stroke-miterlimit:4;stroke-dasharray:none" />
      <path
         id="Sketch013_w0002"
         d="m -63.689933,-16.081638 -1.706171,-13.895646 -13.895646,1.706171 1.70617,13.895646 13.895647,-1.706171"
         stroke="#191919"
         stroke-width="0.35 px"
         style="fill:none;fill-opacity:1;fill-rule:evenodd;stroke-width:0.35;stroke-linecap:square;stroke-miterlimit:4;stroke-dasharray:none" />
      <path
         id="Sketch013_w0003"
         d="m -35.08446,-0.40088613 -1.70617,-13.89564587 13.895646,-1.706171 1.70617,13.8956461 -13.895646,1.70617077"
         stroke="#191919"
         stroke-width="0.35 px"
         style="fill:none;fill-opacity:1;fill-rule:evenodd;stroke-width:0.35;stroke-linecap:square;stroke-miterlimit:4;stroke-dasharray:none" />
      <path
         id="Sketch013_w0004"
         d="m -32.762849,18.507118 -1.70617,-13.8956461 13.895646,-1.7061708 1.70617,13.8956459 -13.895646,1.706171"
         stroke="#191919"
         stroke-width="0.35 px"
         style="fill:none;fill-opacity:1;fill-rule:evenodd;stroke-width:0.35;stroke-linecap:square;stroke-miterlimit:4;stroke-dasharray:none" />
      <path
         id="Sketch013_w0005"
         d="m -111.29657,4.1610382 -1.70618,-13.8956462 13.895651,-1.706171 1.706171,13.8956464 -13.895642,1.7061708"
         stroke="#191919"
         stroke-width="0.35 px"
         style="fill:none;fill-opacity:1;fill-rule:evenodd;stroke-width:0.35;stroke-linecap:square;stroke-miterlimit:4;stroke-dasharray:none" />
      <path
         id="Sketch013_w0006"
         d="m -89.486861,25.471951 -1.706171,-13.895646 13.895646,-1.7061709 1.706171,13.8956459 -13.895646,1.706171"
         stroke="#191919"
         stroke-width="0.35 px"
         style="fill:none;fill-opacity:1;fill-rule:evenodd;stroke-width:0.35;stroke-linecap:square;stroke-miterlimit:4;stroke-dasharray:none" />
      <path
         id="Sketch013_w0007"
         d="m -74.026541,-4.9287906 1.706171,13.8956461 13.895646,-1.7061708 -1.706171,-13.8956461 -13.895646,1.7061708"
         stroke="#191919"
         stroke-width="0.35 px"
         style="fill:none;fill-opacity:1;fill-rule:evenodd;stroke-width:0.35;stroke-linecap:square;stroke-miterlimit:4;stroke-dasharray:none" />
      <path
         id="Sketch013_w0008"
         d="m -49.349242,39.736733 13.895646,-1.706171 -1.706171,-13.895646 -13.895646,1.706171 1.706171,13.895646"
         stroke="#191919"
         stroke-width="0.35 px"
         style="fill:none;fill-opacity:1;fill-rule:evenodd;stroke-width:0.35;stroke-linecap:square;stroke-miterlimit:4;stroke-dasharray:none" />
      <path
         id="Sketch013_w0009"
         d="m -30.441238,37.415122 -1.70617,-13.895646 13.895646,-1.706171 1.70617,13.895646 -13.895646,1.706171"
         stroke="#191919"
         stroke-width="0.35 px"
         style="fill:none;fill-opacity:1;fill-rule:evenodd;stroke-width:0.35;stroke-linecap:square;stroke-miterlimit:4;stroke-dasharray:none" />
      <path
         id="Sketch013_w0010"
         d="m -51.670853,20.828729 13.895646,-1.706171 -1.706171,-13.8956459 -13.895646,1.7061708 1.706171,13.8956461"
         stroke="#191919"
         stroke-width="0.35 px"
         style="fill:none;fill-opacity:1;fill-rule:evenodd;stroke-width:0.35;stroke-linecap:square;stroke-miterlimit:4;stroke-dasharray:none" />
      <path
         id="Sketch013_w0011"
         d="m -40.096818,0.21455406 -13.895646,1.70617084 -1.706171,-13.8956459 13.895646,-1.706171 1.706171,13.89564606"
         stroke="#191919"
         stroke-width="0.35 px"
         style="fill:none;fill-opacity:1;fill-rule:evenodd;stroke-width:0.35;stroke-linecap:square;stroke-miterlimit:4;stroke-dasharray:none" />
      <path
         id="Sketch013_w0012"
         d="m -67.677148,46.782864 13.895646,-1.706171 -1.706171,-13.895646 -13.895646,1.706171 1.706171,13.895646"
         stroke="#191919"
         stroke-width="0.35 px"
         style="fill:none;fill-opacity:1;fill-rule:evenodd;stroke-width:0.35;stroke-linecap:square;stroke-miterlimit:4;stroke-dasharray:none" />
      <path
         id="Sketch013_w0013"
         d="m -69.998759,27.87486 -1.706171,-13.895646 13.895646,-1.706171 1.706171,13.895646 -13.895646,1.706171"
         stroke="#191919"
         stroke-width="0.35 px"
         style="fill:none;fill-opacity:1;fill-rule:evenodd;stroke-width:0.35;stroke-linecap:square;stroke-miterlimit:4;stroke-dasharray:none" />
      <path
         id="Sketch013_w0014"
         d="m -34.670597,-33.749902 1.70617,13.895646 -13.895646,1.706171 -1.706171,-13.895646 13.895647,-1.706171"
         stroke="#191919"
         stroke-width="0.35 px"
         style="fill:none;fill-opacity:1;fill-rule:evenodd;stroke-width:0.35;stroke-linecap:square;stroke-miterlimit:4;stroke-dasharray:none" />
      <path
         id="Sketch013_w0015"
         d="m -108.97496,23.069042 13.895643,-1.70617 -1.706171,-13.8956466 -13.895642,1.7061708 1.70617,13.8956458"
         stroke="#191919"
         stroke-width="0.35 px"
         style="fill:none;fill-opacity:1;fill-rule:evenodd;stroke-width:0.35;stroke-linecap:square;stroke-miterlimit:4;stroke-dasharray:none" />
      <path
         id="Sketch013_w0016"
         d="m -91.808472,6.5639469 -1.706171,-13.8956462 13.895646,-1.7061708 1.706171,13.8956461 -13.895646,1.7061709"
         stroke="#191919"
         stroke-width="0.35 px"
         style="fill:none;fill-opacity:1;fill-rule:evenodd;stroke-width:0.35;stroke-linecap:square;stroke-miterlimit:4;stroke-dasharray:none" />
      <path
         id="Sketch013_w0017"
         d="m -106.65335,41.977047 -1.70617,-13.895647 13.895643,-1.70617 1.706171,13.895646 -13.895644,1.706171"
         stroke="#191919"
         stroke-width="0.35 px"
         style="fill:none;fill-opacity:1;fill-rule:evenodd;stroke-width:0.35;stroke-linecap:square;stroke-miterlimit:4;stroke-dasharray:none" />
      <path
         id="Sketch013_w0018"
         d="m -49.873641,-30.875693 -6.947823,0.853085 1.82804,14.888193 6.947824,-0.853086 -1.828041,-14.888192"
         stroke="#191919"
         stroke-width="0.35 px"
         style="fill:none;fill-opacity:1;fill-rule:evenodd;stroke-width:0.35;stroke-linecap:square;stroke-miterlimit:4;stroke-dasharray:none" />
      <path
         id="Sketch013_w0019"
         d="m -26.171639,-33.785933 1.828041,14.888192 -6.947823,0.853086 -1.828041,-14.888192 6.947823,-0.853086"
         stroke="#191919"
         stroke-width="0.35 px"
         style="fill:none;fill-opacity:1;fill-rule:evenodd;stroke-width:0.35;stroke-linecap:square;stroke-miterlimit:4;stroke-dasharray:none" />
      <title
         id="title2604">b'Sketch013'</title>
    </g>
  </g>
</svg>
